Simply-Blue-Circles/scalable/apps/system-help.svg

<svg xmlns="http://www.w3.org/2000/svg" width="48" height="48" viewBox="0 0 12.7 12.7"><path fill="#2c89a0" d="M6.34.08A6.27 6.27 0 0 0 .08 6.34a6.27 6.27 0 0 0 6.26 6.27 6.27 6.27 0 0 0 6.27-6.27A6.27 6.27 0 0 0 6.34.08zM6.33 1a5.39 5.39 0 0 1 5.37 5.4 5.39 5.39 0 0 1-5.38 5.39 5.39 5.39 0 0 1-5.4-5.4 5.39 5.39 0 0 1 5.4-5.38zm.1 1.83c-.88-.01-1.82.32-2.1.99-.17.37-.01 1.03.54 1.03.33 0 .48-.2.5-.4.02-.14-.04-.27-.08-.4s.14-.4.32-.5c.16-.1.32-.12.34-.13.56-.13 1.13.16 1.36.53.23.36-.03.9-.4 1.44-.36.53-.76 1.14-.76 1.79 0 .24-.02.32 0 .42 0 .08.27.07.47.04-.02-.63.12-1.23.71-1.66.63-.49 1.23-1.1 1.16-1.81-.01-.7-.82-1.23-1.68-1.31a3.31 3.31 0 0 0-.37-.03zM6.38 8.5c-.54-.03-.91.57-.59.96.29.43 1.1.32 1.23-.16.15-.38-.2-.81-.64-.8z"/></svg>

<?xml version="1.0" encoding="UTF-8" standalone="no"?>
<svg
   xmlns:dc="http://purl.org/dc/elements/1.1/"
   xmlns:cc="http://creativecommons.org/ns#"
   xmlns:rdf="http://www.w3.org/1999/02/22-rdf-syntax-ns#"
   xmlns:svg="http://www.w3.org/2000/svg"
   xmlns="http://www.w3.org/2000/svg"
   xmlns:sodipodi="http://sodipodi.sourceforge.net/DTD/sodipodi-0.dtd"
   xmlns:inkscape="http://www.inkscape.org/namespaces/inkscape"
   width="48"
   height="48"
   viewBox="0 0 12.7 12.7"
   version="1.1"
   id="svg4"
   sodipodi:docname="system-help.svg"
   inkscape:version="0.92.4 (5da689c313, 2019-01-14)">
  <metadata
     id="metadata10">
    <rdf:RDF>
      <cc:Work
         rdf:about="">
        <dc:format>image/svg+xml</dc:format>
        <dc:type
           rdf:resource="http://purl.org/dc/dcmitype/StillImage" />
        <dc:title></dc:title>
      </cc:Work>
    </rdf:RDF>
  </metadata>
  <defs
     id="defs8" />
  <sodipodi:namedview
     pagecolor="#ffffff"
     bordercolor="#666666"
     borderopacity="1"
     objecttolerance="10"
     gridtolerance="10"
     guidetolerance="10"
     inkscape:pageopacity="0"
     inkscape:pageshadow="2"
     inkscape:window-width="1087"
     inkscape:window-height="480"
     id="namedview6"
     showgrid="false"
     inkscape:zoom="4.9166667"
     inkscape:cx="2.1355932"
     inkscape:cy="24"
     inkscape:window-x="0"
     inkscape:window-y="25"
     inkscape:window-maximized="0"
     inkscape:current-layer="svg4" />
  <path
     d="M 6.34,0.08 A 6.27,6.27 0 0 0 0.08,6.34 6.27,6.27 0 0 0 6.34,12.61 6.27,6.27 0 0 0 12.61,6.34 6.27,6.27 0 0 0 6.34,0.08 Z M 6.33,1 a 5.39,5.39 0 0 1 5.37,5.4 5.39,5.39 0 0 1 -5.38,5.39 5.39,5.39 0 0 1 -5.4,-5.4 5.39,5.39 0 0 1 5.4,-5.38 z m 0.1,1.83 C 5.55,2.82 4.61,3.15 4.33,3.82 4.16,4.19 4.32,4.85 4.87,4.85 5.2,4.85 5.35,4.65 5.37,4.45 5.39,4.31 5.33,4.18 5.29,4.05 5.25,3.92 5.43,3.65 5.61,3.55 5.77,3.45 5.93,3.43 5.95,3.42 6.51,3.29 7.08,3.58 7.31,3.95 7.54,4.31 7.28,4.85 6.91,5.39 6.55,5.92 6.15,6.53 6.15,7.18 c 0,0.24 -0.02,0.32 0,0.42 0,0.08 0.27,0.07 0.47,0.04 C 6.6,7.01 6.74,6.41 7.33,5.98 7.96,5.49 8.56,4.88 8.49,4.17 8.48,3.47 7.67,2.94 6.81,2.86 A 3.31,3.31 0 0 0 6.44,2.83 Z M 6.38,8.5 C 5.84,8.47 5.47,9.07 5.79,9.46 6.08,9.89 6.89,9.78 7.02,9.3 7.17,8.92 6.82,8.49 6.38,8.5 Z"
     id="path2"
     inkscape:connector-curvature="0"
     style="fill:#2c89a0" />
</svg>
